!!!COM: Palestrina, Giovanni Perluigi da
!!!OPR: Missa Panis quem ego dabo
!!!OTL: Agnus II
**kern	**kern	**kern	**kern	**kern
*Ibass	*Itenor	*Itenor	*Icalto	*Icant
!Bassus	!Tenor 2	!Tenor 1	!Altus	!Cantus
*clefF4	*clefGv2	*clefGv2	*clefG2	*clefG2
*k[]	*k[]	*k[]	*k[]	*k[]
*D:dor	*D:dor	*D:dor	*D:dor	*D:dor
*M4/2	*M4/2	*M4/2	*M4/2	*M4/2
=1	=1	=1	=1	=1
0r	0r	0d	1r	0r
.	.	.	[1a	.
=2	=2	=2	=2	=2
0r	0r	1A	1a]	0r
.	.	2.c	1e	.
.	.	4d	.	.
=3	=3	=3	=3	=3
0r	0r	4e	1g	1r
.	.	4f#	.	.
.	.	1g	.	.
.	.	.	1a	[1dd
.	.	2f#	.	.
=4	=4	=4	=4	=4
0r	0r	1g	1b	1dd]
.	.	2r	2.cc	1a
.	.	[2f	.	.
.	.	.	4b	.
=5	=5	=5	=5	=5
0r	0r	2f]	2a	1cc
.	.	2.e	2g	.
.	.	.	1f	1dd
.	.	4d	.	.
.	.	[2d	.	.
=6	=6	=6	=6	=6
0r	1r	2d]	2e	1ee
.	.	2c#	1a	.
.	[1d	4d	.	2.ff
.	.	4e	.	.
.	.	4f	4d	.
.	.	4g	4e	4ee
=7	=7	=7	=7	=7
0r	1d]	2a	4f	4dd
.	.	.	4g	4cc
.	.	2f	2.a	2dd
.	1A	[1e	.	2cc
.	.	.	4b	.
.	.	.	[2cc	[2ee
=8	=8	=8	=8	=8
0r	1c	1e]	4cc]	4ee]
.	.	.	4b	4dd
.	.	.	1a	2cc
.	2d	1r	.	1b
.	2e	.	2g#	.
=9	=9	=9	=9	=9
1r	2.f	2r	1a	2a
.	.	2A	.	2cc
.	4e	.	.	.
[1G	2d	2B	1r	2b
.	2c	2c	.	2a
=10	=10	=10	=10	=10
1G]	1B	2.d	2r	4g
.	.	.	.	4a
.	.	.	2g	4b
.	.	4e	.	4cc
1D	1A	4f	2a	4dd
.	.	4g	.	4ee
.	.	[2a	[2f	[2ff
=11	=11	=11	=11	=11
1F	0r	4a]	4f]	4ff]
.	.	4g	4g	4ee
.	.	2f	2a	1dd
2G	.	1e	2b-	.
2A	.	.	4a	2cc#
.	.	.	4g	.
=12	=12	=12	=12	=12
2.B-	0r	2r	4f	0dd
.	.	.	4e	.
.	.	2d	4d	.
4A	.	.	4c	.
2G	.	2d	4B-	.
.	.	.	4c	.
2F	.	2d	[2d	.
=13	=13	=13	=13	=13
1E	1r	1g	2d]	1ee
.	.	.	2c#	.
1D	2r	2f	4d	2a
.	.	.	4e	.
.	2A	2d	4f	[2dd
.	.	.	4g	.
=14	=14	=14	=14	=14
0r	2A	1e	[0a	2dd]
.	2A	.	.	2cc#
.	1d	1f	.	1dd
=15	=15	=15	=15	=15
0r	2c#	2e	1a]	2r
.	2d	2f	.	2a
.	2.A	2f	2r	2a
.	.	2e	2a	2a
.	4c	.	.	.
=16	=16	=16	=16	=16
1r	1B	1d	2a	1dd
.	.	.	2g#	.
2r	1A	2e	1a	2cc#
2D	.	[2f	.	2dd
=17	=17	=17	=17	=17
2D	0r	4f]	2a	1a
.	.	4e	.	.
2D	.	2.d	2f	.
1G	.	.	1g	2.b
.	.	4c	.	.
.	.	2B	.	.
.	.	.	.	4cc
=18	=18	=18	=18	=18
2F#	0r	2A	2a	0dd
2G	.	2.B	2d	.
2.D	.	.	2d	.
.	.	4c	.	.
.	.	[2d	2d	.
4F	.	.	.	.
=19	=19	=19	=19	=19
1E	0r	2d]	1g	1ee
.	.	2c#	.	.
1D	.	1d	2f	1a
.	.	.	[2a	.
=20	=20	=20	=20	=20
0r	1e	1r	4a]	2b
.	.	.	4g#	.
.	.	.	2g#	2b
.	2e	1A	1a	2cc
.	2e	.	.	4a
.	.	.	.	4b
=21	=21	=21	=21	=21
0r	1a	2A	2e	4cc
.	.	.	.	4dd
.	.	2A	2cc	1ee
.	2g#	2e	2b	.
.	2a	2A	2cc	[2ff
=22	=22	=22	=22	=22
0r	2.e	1c	1cc	4ff]
.	.	.	.	4ee
.	.	.	.	1ee
.	4g	.	.	.
.	1f	[1d	[1a	.
.	.	.	.	2dd
=23	=23	=23	=23	=23
1A	1e	2d]	1a]	0ee
.	.	4c#	.	.
.	.	4B	.	.
2A	1r	4c#	2r	.
.	.	4d	.	.
2A	.	4e	2a	.
.	.	8d	.	.
.	.	8e	.	.
=24	=24	=24	=24	=24
1d	0r	1f	2a	2r
.	.	.	2b-	2dd
2c#	.	2e	1a	2ee
2d	.	[2d	.	[2ff
=25	=25	=25	=25	=25
2.A	2r	4d]	1a	4ff]
.	.	4c	.	4ee
.	1a	2c	.	2ee
4c	.	.	.	.
1B-	.	2f	1d	1dd
.	2g	2d	.	.
=26	=26	=26	=26	=26
1A	2.a	2e	2r	1cc
.	.	2f	2a	.
.	8g	.	.	.
.	8f	.	.	.
1r	2e	1g	2b	2r
.	2g	.	2b	[2ee
=27	=27	=27	=27	=27
0r	1f	2r	2cc	2ee]
.	.	1a	4b	2dd
.	.	.	4a	.
.	1e	.	1b	2.ee
.	.	2g#	.	.
.	.	.	.	4dd
=28	=28	=28	=28	=28
2r	0r	2.a	1a	2cc
1d	.	.	.	2dd
.	.	8g	.	.
.	.	8f	.	.
.	.	2e	1r	1ee
2c	.	2g	.	.
=29	=29	=29	=29	=29
2.d	0r	1.f	1r	0a
8c	.	.	.	.
8B-	.	.	.	.
2A	.	.	2r	.
2c	.	2e	[2a	.
=30	=30	=30	=30	=30
1B-	0r	1d	2a]	2r
.	.	.	2g	1dd
1A	.	2e	2.a	.
.	.	[2a	.	2cc#
.	.	.	4g	.
=31	=31	=31	=31	=31
0r	1.d	4a]	4f	2.dd
.	.	4g	4e	.
.	.	1f	4d	.
.	.	.	4e	8cc
.	.	.	.	8b
.	.	.	4f	2a
.	.	.	4d	.
.	2c	2e	[2g	2cc
=32	=32	=32	=32	=32
0r	2.d	4d	2g]	2b-
.	.	4e	.	.
.	.	4f	1f	4a
.	8c	4g	.	4b
.	8B	.	.	.
.	2A	2a	.	4cc
.	.	.	.	4dd
.	2c	[2g	2e	[2ee
=33	=33	=33	=33	=33
0r	1B-	4g]	1g	4ee]
.	.	4f	.	4dd
.	.	2d	.	1dd
.	1A	1e	1a	.
.	.	.	.	2cc#
=34	=34	=34	=34	=34
1.G	0r	1d	1.b-	[0dd
.	.	2r	.	.
2F#	.	[2d	2a	.
=35	=35	=35	=35	=35
2.G	0r	2d]	2.b-	1dd]
.	.	2G	.	.
8F	.	.	8a	.
8E	.	.	8g	.
2D	.	1A	2f	2r
2F	.	.	2a	[2dd
=36	=36	=36	=36	=36
1E	0r	2B-	1.g	2dd]
.	.	2G	.	2cc#
1D	.	2A	.	2.dd
.	.	[2d	4f	.
.	.	.	4e	8cc
.	.	.	.	8b
=37	=37	=37	=37	=37
0r	2r	2d]	2f	2a
.	1a	2c	2e	2cc
.	.	2d	2r	1b
.	2g#	2e	2b	.
=38	=38	=38	=38	=38
0r	2.a	2.A	2cc	1a
.	.	.	1cc	.
.	8g	4B	.	.
.	8f	.	.	.
.	2e	4c	.	2r
.	.	4d	.	.
.	2g	2e	2b	[2ee
=39	=39	=39	=39	=39
0r	1f	2A	2cc	2ee]
.	.	1a	4b	2dd
.	.	.	4a	.
.	1e	.	1b	2.ee
.	.	2g#	.	.
.	.	.	.	4dd
=40	=40	=40	=40	=40
2r	2A	1a	0a	2cc
1d	1a	.	.	2dd
.	.	1A	.	1ee
2c#	2e	.	.	.
=41	=41	=41	=41	=41
2.d	2.f	2r	2r	2.a
.	.	2d	1a	.
8c	4g	.	.	4b
8B	.	.	.	.
2A	2a	2e	.	4cc
.	.	.	.	4dd
2c	2e	2c	2a	[2ee
=42	=42	=42	=42	=42
1B-	2f	1d	2b-	4ee]
.	.	.	.	4dd
.	4e	.	2g	1dd
.	4d	.	.	.
1A	1e	2r	1a	.
.	.	[2a	.	2cc#
=43	=43	=43	=43	=43
[0D	[0d	4a]	2.f#	[0dd
.	.	4g	.	.
.	.	4f#	.	.
.	.	4e	4g	.
.	.	1f#	1a	.
=44	=44	=44	=44	=44
0D]	0d]	0f#	0a	0dd]
==	==	==	==	==
*-	*-	*-	*-	*-
!!!CDT: 1525/^1526/-1594/2/2
!!!OCY: Italia
!!!AGN: Mass (Parody)
!!!AST: renaissance, vocal
!!!ASW: Motet 1532 (Lupus Hellinck)
!!!PWK: Masses, Book 5
!!!RNB: Cadence finals: A
!!!YOR: Le Opere Complete, v. 15, p. 45
!!!YOO: Rome, Italy: Fratelli Scalera
!!!END: 1992//
!!!EED: John Miller
!!!YEC: Copyright 2000, John Miller
!!!YEN: United States of America
!!!YEM: Rights to all derivative electronic formats reserved.
!!!YEM: Refer to licensing agreement for further details.
!!!YEM: This file must be accompanied by the licensing agreement.
!!!YEM: A copy of the licensing agreement may be found at http://www.music-cog.ohio-state.edu/HumdrumDatabases/Palestrina/license.txt
!!!EMD: converted to Humdrum by Bret Aarden
